!!!COM: Franz Schubert
!!!CNT: Deutsch
!!!TXO: Deutsch
!!!OTL: "Wanderers Nachtlied"
!!!LYR: Johann Wolfgang von Goethe
!!!OPS: Op. 4
!!!ONM: No. 3
!!!ENC: Ben Fuhrman
!!!YOR: Schubert Lieder - Dietrich Fischer-Dieskau, and Elmar Budde, eds.
!!!YOR: New York: C. F. Peters, Vol. 2
!!!ODT: 1815/
!!NB: Only vocal melody encoded.
!!NB: First instance of melodic material only encoded.
!!NB: Original Key: G-flat Major
**kern
*clef G2
*k[b-e-a-]
*M4/4
!!created: 08/03/06 2:50
!!proofed and posted:08/03/06 2:50 
!!edit time: 5 minutes
=1
{8.e
16e
8e
8e
8.e
16f
4g
=2
8.f
16f
8f
8f
8.f
16g
4a}
=3
{8.g
16g
8g
8cc
8.bn
16g
4g
=4
8.e
16e
8e
8a
8.g
32b
32a
4g}
=5
{8.cc
16cc
16b
16g
16e
16d-
qd-
8c
8c}
8r
{16e
16e
=6
8.e
16e
16f
16e
16d
16e
(4.f
8f#)}
=7
{4.g
8b
8cc
8b
16ee
16dd
16cc
16bb
=8
8.b
16g
16b
16a
16f
16g
4e}
4r
=9
{4.g
8b
8cc
8b
16ee
16dd
16cc
16b
=10
8.b
16g
16b
16a
16f
16g
4e}
4r
==
*-
